X:1
T:Miss Smith
M:4/4
L:1/8
K:C
 F2 C2 CF EF| G4 C4| A2 c2 G2 c2| A3 GF EF G| A6 A2| ^A6 A2| c2 A2 ^A2 G2|\
 F4 c4| Bc dc Bc dc| Bc gf ed c^A| =AC B,C ^AC DE| FA c^A =AG FE|
